assets/icons/qvision/app_settings_alt.svg

<svg xmlns="http://www.w3.org/2000/svg" height="24" viewBox="0 0 24 24" width="24"><path d="M0 0h24v24H0z" fill="none"/><path d="M21.81 12.74l-.82-.63v-.22l.8-.63c.16-.12.2-.34.1-.51l-.85-1.48c-.07-.13-.21-.2-.35-.2-.05 0-.1.01-.15.03l-.95.38c-.08-.05-.11-.07-.19-.11l-.15-1.01c-.03-.21-.2-.36-.4-.36h-1.71c-.2 0-.37.15-.4.34l-.14 1.01c-.03.02-.07.03-.1.05l-.09.06-.95-.38c-.05-.02-.1-.03-.15-.03-.14 0-.27.07-.35.2l-.85 1.48c-.1.17-.06.39.1.51l.8.63v.23l-.8.63c-.16.12-.2.34-.1.51l.85 1.48c.07.13.21.2.35.2.05 0 .1-.01.15-.03l.95-.37c.08.05.12.07.2.11l.15 1.01c.03.2.2.34.4.34h1.71c.2 0 .37-.15.4-.34l.15-1.01c.03-.02.07-.03.1-.05l.09-.06.95.38c.05.02.1.03.15.03.14 0 .27-.07.35-.2l.85-1.48c.1-.17.06-.39-.1-.51zM18 13.5c-.83 0-1.5-.67-1.5-1.5s.67-1.5 1.5-1.5 1.5.67 1.5 1.5-.67 1.5-1.5 1.5zM17 17h2v4c0 1.1-.9 2-2 2H7c-1.1 0-2-.9-2-2V3c0-1.1.9-2 2-2h10c1.1 0 2 .9 2 2v4h-2V6H7v12h10v-1z"/></svg>

<svg width="24" height="24" viewBox="0 0 24 24" fill="none" xmlns="http://www.w3.org/2000/svg">
<g clip-path="url(#clip0_147_5712)">
<path d="M21.81 12.74L20.99 12.11V11.89L21.79 11.26C21.95 11.14 21.99 10.92 21.89 10.75L21.04 9.27C20.97 9.14 20.83 9.07 20.69 9.07C20.64 9.07 20.59 9.08 20.54 9.1L19.59 9.48C19.51 9.43 19.48 9.41 19.4 9.37L19.25 8.36C19.22 8.15 19.05 8 18.85 8H17.14C16.94 8 16.77 8.15 16.74 8.34L16.6 9.35C16.57 9.37 16.53 9.38 16.5 9.4L16.41 9.46L15.46 9.08C15.41 9.06 15.36 9.05 15.31 9.05C15.17 9.05 15.04 9.12 14.96 9.25L14.11 10.73C14.01 10.9 14.05 11.12 14.21 11.24L15.01 11.87V12.1L14.21 12.73C14.05 12.85 14.01 13.07 14.11 13.24L14.96 14.72C15.03 14.85 15.17 14.92 15.31 14.92C15.36 14.92 15.41 14.91 15.46 14.89L16.41 14.52C16.49 14.57 16.53 14.59 16.61 14.63L16.76 15.64C16.79 15.84 16.96 15.98 17.16 15.98H18.87C19.07 15.98 19.24 15.83 19.27 15.64L19.42 14.63C19.45 14.61 19.49 14.6 19.52 14.58L19.61 14.52L20.56 14.9C20.61 14.92 20.66 14.93 20.71 14.93C20.85 14.93 20.98 14.86 21.06 14.73L21.91 13.25C22.01 13.08 21.97 12.86 21.81 12.74ZM18 13.5C17.17 13.5 16.5 12.83 16.5 12C16.5 11.17 17.17 10.5 18 10.5C18.83 10.5 19.5 11.17 19.5 12C19.5 12.83 18.83 13.5 18 13.5ZM17 17H19V21C19 22.1 18.1 23 17 23H7C5.9 23 5 22.1 5 21V3C5 1.9 5.9 1 7 1H17C18.1 1 19 1.9 19 3V7H17V6H7V18H17V17Z" fill="#323232"/>
</g>
<defs>
<clipPath id="clip0_147_5712">
<rect width="24" height="24" fill="white"/>
</clipPath>
</defs>
</svg>
